svgs/regular/lock-keyhole-open.svg

<svg xmlns="http://www.w3.org/2000/svg" viewBox="0 0 576 512"><!--! Font Awesome Pro 6.5.1 by @fontawesome - https://fontawesome.com License - https://fontawesome.com/license (Commercial License) Copyright 2023 Fonticons, Inc. --><path d="M432 48c-44.2 0-80 35.8-80 80v64h32c35.3 0 64 28.7 64 64V448c0 35.3-28.7 64-64 64H64c-35.3 0-64-28.7-64-64V256c0-35.3 28.7-64 64-64H304V128C304 57.3 361.3 0 432 0s128 57.3 128 128v72c0 13.3-10.7 24-24 24s-24-10.7-24-24V128c0-44.2-35.8-80-80-80zM384 240H64c-8.8 0-16 7.2-16 16V448c0 8.8 7.2 16 16 16H384c8.8 0 16-7.2 16-16V256c0-8.8-7.2-16-16-16zM256 376H192c-13.3 0-24-10.7-24-24s10.7-24 24-24h64c13.3 0 24 10.7 24 24s-10.7 24-24 24z"/></svg>

<svg xmlns="http://www.w3.org/2000/svg" viewBox="0 0 576 512"><!--! Font Awesome Pro 6.1.1 by @fontawesome - https://fontawesome.com License - https://fontawesome.com/license (Commercial License) Copyright 2022 Fonticons, Inc. --><path d="M192 376C178.7 376 168 365.3 168 352C168 338.7 178.7 328 192 328H256C269.3 328 280 338.7 280 352C280 365.3 269.3 376 256 376H192zM432 48C387.8 48 352 83.82 352 128V192H384C419.3 192 448 220.7 448 256V448C448 483.3 419.3 512 384 512H64C28.65 512 0 483.3 0 448V256C0 220.7 28.65 192 64 192H304V128C304 57.31 361.3 0 432 0C502.7 0 560 57.31 560 128V200C560 213.3 549.3 224 536 224C522.7 224 512 213.3 512 200V128C512 83.82 476.2 48 432 48zM384 240H64C55.16 240 48 247.2 48 256V448C48 456.8 55.16 464 64 464H384C392.8 464 400 456.8 400 448V256C400 247.2 392.8 240 384 240z"/></svg>
